;FLAVOR:Marlin
;TIME:428
;Filament used: 0.323201m
;Layer height: 0.175
;MINX:5.756
;MINY:5.756
;MINZ:0.263
;MAXX:114.24
;MAXY:115.108
;MAXZ:0.263
;TARGET_MACHINE.NAME:Monoprice Select Mini V2
;Generated with Cura_SteamEngine 5.9.1
M140 S65
M105
M190 S65
M104 S205
M105
M109 S205
M82 ;absolute extrusion mode
G21;(metric values)
G90;(absolute positioning)
M82;(set extruder to absolute mode)
M107;(start with the fan off)
G28;(Home the printer)
G92 E0;(Reset the extruder to 0)
G0 Z5 E5 F500;(Move up and prime the nozzle)
G0 X-1 Z0;(Move outside the printable area)
G1 Y60 E8 F500;(Draw a priming/wiping line to the rear)
G1 X-1;(Move a little closer to the print area)
G1 Y10 E16 F500;(draw more priming/wiping)
G1 E15 F250;(Small retract)
G92 E0;(Zero the extruder)
G92 E0
G92 E0
G1 F2400 E-2.5
;LAYER_COUNT:1
;LAYER:0
M107
;MESH:Bed_Levelling.stl
G0 F4320 X21.833 Y21.833 Z0.263
;TYPE:WALL-INNER
G1 F2400 E0
G1 F1800 X21.833 Y8.667 E0.50386
G1 X8.667 Y8.667 E1.00772
G1 X8.667 Y21.833 E1.51159
G1 X21.138 Y21.833 E1.98885
G0 F1620 X21.833 Y21.833
G0 F4320 X22.183 Y22.183
G1 F1800 X22.183 Y8.317 E2.5195
G1 X8.317 Y8.317 E3.05015
G1 X8.317 Y22.183 E3.5808
G1 X21.488 Y22.183 E4.08486
G0 F1620 X22.183 Y22.183
G0 F4320 X22.508 Y22.508
;TYPE:WALL-OUTER
G1 F1800 X22.508 Y7.992 E4.64038
G1 X7.992 Y7.992 E5.19591
G1 X7.992 Y22.508 E5.75144
G1 X21.813 Y22.508 E6.28037
G0 F1620 X22.508 Y22.508
G0 F4320 X22.508 Y22.308
G0 X21.855 Y21.855
G0 X21.501 Y21.501
;TYPE:SKIN
G1 F1200 X8.999 Y21.501 E6.75882
G1 X8.999 Y8.999 E7.23727
G1 X21.501 Y8.999 E7.71572
G1 X21.501 Y21.501 E8.19417
G0 F4320 X21.758 Y21.501
G0 X21.686 Y8.814
G0 X21.053 Y9.174
G1 F1200 X21.326 Y9.447 E8.20894
G0 F4320 X21.326 Y9.942
G1 F1200 X20.558 Y9.174 E8.25051
G0 F4320 X20.063 Y9.174
G1 F1200 X21.326 Y10.437 E8.31887
G0 F4320 X21.326 Y10.932
G1 F1200 X19.568 Y9.174 E8.41401
G0 F4320 X19.073 Y9.174
G1 F1200 X21.326 Y11.427 E8.53595
G0 F4320 X21.326 Y11.922
G1 F1200 X18.579 Y9.174 E8.68465
G0 F4320 X18.084 Y9.174
G1 F1200 X21.326 Y12.417 E8.86014
G0 F4320 X21.326 Y12.912
G1 F1200 X17.589 Y9.174 E9.06242
G0 F4320 X17.094 Y9.174
G1 F1200 X21.326 Y13.407 E9.29149
G0 F4320 X21.326 Y13.902
G1 F1200 X16.599 Y9.174 E9.54735
G0 F4320 X16.104 Y9.174
G1 F1200 X21.326 Y14.397 E9.83
G0 F4320 X21.326 Y14.892
G1 F1200 X15.609 Y9.174 E10.13944
G0 F4320 X15.114 Y9.174
G1 F1200 X21.326 Y15.387 E10.47568
G0 F4320 X21.326 Y15.882
G1 F1200 X14.619 Y9.174 E10.8387
G0 F4320 X14.124 Y9.174
G1 F1200 X21.326 Y16.377 E11.22851
G0 F4320 X21.326 Y16.872
G1 F1200 X13.629 Y9.174 E11.64511
G0 F4320 X13.134 Y9.174
G1 F1200 X21.326 Y17.367 E12.08851
G0 F4320 X21.326 Y17.862
G1 F1200 X12.639 Y9.174 E12.55869
G0 F4320 X12.144 Y9.174
G1 F1200 X21.326 Y18.356 E13.05564
G0 F4320 X21.326 Y18.851
G1 F1200 X11.649 Y9.174 E13.57938
G0 F4320 X11.154 Y9.174
G1 F1200 X21.326 Y19.346 E14.1299
G0 F4320 X21.326 Y19.841
G1 F1200 X10.659 Y9.174 E14.70722
G0 F4320 X10.164 Y9.174
G1 F1200 X21.326 Y20.336 E15.31133
G0 F4320 X21.326 Y20.831
G1 F1200 X9.669 Y9.174 E15.94223
G0 F4320 X9.174 Y9.174
G1 F1200 X21.326 Y21.326 E16.59992
G0 F4320 X20.831 Y21.326
G1 F1200 X9.174 Y9.669 E17.23082
G0 F4320 X9.174 Y10.164
G1 F1200 X20.336 Y21.326 E17.83493
G0 F4320 X19.841 Y21.326
G1 F1200 X9.174 Y10.659 E18.41224
G0 F4320 X9.174 Y11.154
G1 F1200 X19.346 Y21.326 E18.96277
G0 F4320 X18.851 Y21.326
G1 F1200 X9.174 Y11.649 E19.48651
G0 F4320 X9.174 Y12.144
G1 F1200 X18.356 Y21.326 E19.98346
G0 F4320 X17.862 Y21.326
G1 F1200 X9.174 Y12.639 E20.45364
G0 F4320 X9.174 Y13.134
G1 F1200 X17.367 Y21.326 E20.89703
G0 F4320 X16.872 Y21.326
G1 F1200 X9.174 Y13.629 E21.31364
G0 F4320 X9.174 Y14.124
G1 F1200 X16.377 Y21.326 E21.70345
G0 F4320 X15.882 Y21.326
G1 F1200 X9.174 Y14.619 E22.06647
G0 F4320 X9.174 Y15.114
G1 F1200 X15.387 Y21.326 E22.4027
G0 F4320 X14.892 Y21.326
G1 F1200 X9.174 Y15.609 E22.71214
G0 F4320 X9.174 Y16.104
G1 F1200 X14.397 Y21.326 E22.9948
G0 F4320 X13.902 Y21.326
G1 F1200 X9.174 Y16.599 E23.25066
G0 F4320 X9.174 Y17.094
G1 F1200 X13.407 Y21.326 E23.47973
G0 F4320 X12.912 Y21.326
G1 F1200 X9.174 Y17.589 E23.68201
G0 F4320 X9.174 Y18.084
G1 F1200 X12.417 Y21.326 E23.8575
G0 F4320 X11.922 Y21.326
G1 F1200 X9.174 Y18.579 E24.0062
G0 F4320 X9.174 Y19.073
G1 F1200 X11.427 Y21.326 E24.12814
G0 F4320 X10.932 Y21.326
G1 F1200 X9.174 Y19.568 E24.22328
G0 F4320 X9.174 Y20.063
G1 F1200 X10.437 Y21.326 E24.29164
G0 F4320 X9.942 Y21.326
G1 F1200 X9.174 Y20.558 E24.3332
G0 F4320 X9.174 Y21.053
G1 F1200 X9.447 Y21.326 E24.34798
G1 F2400 E21.84798
G0 F4320 X9.447 Y21.758
G0 X8.194 Y22.311
G0 X8.194 Y23.841
G0 X6.473 Y24.074
;TYPE:WALL-INNER
G1 F2400 E24.34798
G1 F1810.3 X6.408 Y24.037 E24.35082
G1 X6.409 Y24.111 E24.35364
G1 X6.473 Y24.074 E24.35645
G0 F4320 X23.869 Y23.869
G0 X23.828 Y23.828
G1 F1675.5 X23.551 Y23.999 E24.36984
G1 F1578.9 X7.048 Y24.004 E25.08983
G1 F1689 X6.676 Y23.828 E25.10661
G1 F1675.5 X6.505 Y23.551 E25.11999
G1 F1578.9 X6.5 Y7.048 E25.83998
G1 F1689 X6.676 Y6.676 E25.85677
G1 F1675.5 X6.953 Y6.505 E25.87015
G1 F1578.9 X23.456 Y6.5 E26.59014
G1 F1689 X23.828 Y6.676 E26.60692
G1 X24.004 Y7.048 E26.62371
G1 F1582.9 X23.999 Y23.182 E27.32583
G0 F1620 X23.999 Y23.551
G0 X23.828 Y23.828
G0 F4320 X24.117 Y24.074
G1 F1810.3 X24.052 Y24.037 E27.32868
G1 X24.053 Y24.111 E27.33149
G1 X24.117 Y24.074 E27.33431
G0 F4320 X24.117 Y6.43
G1 F1810.3 X24.052 Y6.393 E27.33715
G1 X24.053 Y6.467 E27.33997
G1 X24.117 Y6.43 E27.34278
G0 F4320 X6.473 Y6.43
G1 F1810.3 X6.408 Y6.393 E27.34563
G1 X6.409 Y6.467 E27.34844
G1 X6.473 Y6.43 E27.35126
G0 F4320 X6.636 Y23.869
G0 X23.585 Y24.397
G1 F1675.5 X24.423 Y24.423 E27.38573
G1 X24.398 Y23.585 E27.42019
G1 F1582.9 X24.4 Y7.048 E28.13986
G1 F1615.4 X24.437 Y6.068 E28.18168
G1 X23.456 Y6.104 E28.22354
G1 F1578.9 X6.919 Y6.107 E28.94501
G1 F1623.7 X6.068 Y6.081 E28.98113
G1 F1640.6 X6.104 Y7.048 E29.02176
G1 F1578.9 X6.107 Y23.585 E29.74323
G1 F1623.7 X6.081 Y24.436 E29.77935
G1 F1640.6 X7.048 Y24.4 E29.81999
G1 F1578.9 X22.89 Y24.397 E30.51114
G0 F1620 X23.585 Y24.397
G0 F4320 X23.654 Y23.491
;TYPE:WALL-OUTER
G1 F1800 X23.598 Y23.598 E30.51576
G1 X23.491 Y23.654 E30.52038
G1 X7.048 Y23.656 E31.14965
G1 X6.906 Y23.598 E31.15552
G1 X6.85 Y23.491 E31.16014
G1 X6.848 Y7.048 E31.78942
G1 X6.906 Y6.906 E31.79529
G1 X7.013 Y6.85 E31.79991
G1 X23.456 Y6.848 E32.42918
G1 X23.598 Y6.906 E32.43505
G1 X23.656 Y7.048 E32.44092
G1 X23.654 Y22.796 E33.0436
G0 F1620 X23.654 Y23.491
G0 F4320 X23.598 Y23.598
G0 X23.529 Y23.634
G0 X23.529 Y23.941
G0 X24.493 Y24.493
G0 X24.748 Y24.748
G1 F1800 X24.748 Y5.756 E33.77042
G1 X5.756 Y5.756 E34.49724
G1 X5.756 Y24.748 E35.22406
G1 X24.053 Y24.748 E35.92429
G0 F1620 X24.748 Y24.748
G0 F4320 X24.748 Y24.548
G1 F2400 E33.42429
G0 F4320 X24.463 Y24.548
G0 X21.825 Y24.543
G0 X21.825 Y25.613
G0 X21.825 Y49.64
G0 X21.825 Y52.947
G0 X21.825 Y66.581
G1 F2400 E35.92429
G0 F4320 X21.833 Y66.581
;TYPE:WALL-INNER
G1 F1800 X21.833 Y53.415 E36.42815
G1 X8.667 Y53.415 E36.93201
G1 X8.667 Y66.581 E37.43588
G1 X21.138 Y66.581 E37.91314
G0 F1620 X21.833 Y66.581
G0 F4320 X22.183 Y66.931
G1 F1800 X22.183 Y53.065 E38.44379
G1 X8.317 Y53.065 E38.97444
G1 X8.317 Y66.931 E39.50509
G1 X21.488 Y66.931 E40.00915
G0 F1620 X22.183 Y66.931
G0 F4320 X22.508 Y67.256
;TYPE:WALL-OUTER
G1 F1800 X22.508 Y52.74 E40.56467
G1 X7.992 Y52.74 E41.1202
G1 X7.992 Y67.256 E41.67573
G1 X21.813 Y67.256 E42.20466
G0 F1620 X22.508 Y67.256
G0 F4320 X22.508 Y67.056
G0 X21.855 Y66.603
G0 X21.501 Y66.249
;TYPE:SKIN
G1 F1200 X8.999 Y66.249 E42.68311
G1 X8.999 Y53.747 E43.16156
G1 X21.501 Y53.747 E43.64001
G1 X21.501 Y66.249 E44.11846
G0 F4320 X21.758 Y66.249
G0 X21.758 Y53.994
G0 X21.326 Y53.994
G1 F1200 X21.254 Y53.923 E44.12233
G0 F4320 X20.759 Y53.923
G1 F1200 X21.326 Y54.489 E44.15299
G0 F4320 X21.326 Y54.984
G1 F1200 X20.264 Y53.923 E44.21044
G0 F4320 X19.769 Y53.923
G1 F1200 X21.326 Y55.479 E44.29468
G0 F4320 X21.326 Y55.974
G1 F1200 X19.274 Y53.923 E44.40571
G0 F4320 X18.779 Y53.923
G1 F1200 X21.326 Y56.469 E44.54353
G0 F4320 X21.326 Y56.964
G1 F1200 X18.284 Y53.923 E44.70814
G0 F4320 X17.789 Y53.923
G1 F1200 X21.326 Y57.459 E44.89955
G0 F4320 X21.326 Y57.954
G1 F1200 X17.294 Y53.923 E45.11774
G0 F4320 X16.799 Y53.923
G1 F1200 X21.326 Y58.449 E45.36272
G0 F4320 X21.326 Y58.944
G1 F1200 X16.304 Y53.923 E45.63449
G0 F4320 X15.809 Y53.923
G1 F1200 X21.326 Y59.439 E45.93306
G0 F4320 X21.326 Y59.934
G1 F1200 X15.315 Y53.923 E46.25838
G0 F4320 X14.82 Y53.923
G1 F1200 X21.326 Y60.429 E46.6105
G0 F4320 X21.326 Y60.924
G1 F1200 X14.325 Y53.923 E46.98941
G0 F4320 X13.83 Y53.923
G1 F1200 X21.326 Y61.419 E47.39511
G0 F4320 X21.326 Y61.914
G1 F1200 X13.335 Y53.923 E47.82759
G0 F4320 X12.84 Y53.923
G1 F1200 X21.326 Y62.409 E48.28687
G0 F4320 X21.326 Y62.904
G1 F1200 X12.345 Y53.923 E48.77294
G0 F4320 X11.85 Y53.923
G1 F1200 X21.326 Y63.398 E49.28577
G0 F4320 X21.326 Y63.893
G1 F1200 X11.355 Y53.923 E49.82539
G0 F4320 X10.86 Y53.923
G1 F1200 X21.326 Y64.388 E50.39181
G0 F4320 X21.326 Y64.883
G1 F1200 X10.365 Y53.923 E50.98501
G0 F4320 X9.87 Y53.923
G1 F1200 X21.326 Y65.378 E51.605
G0 F4320 X21.326 Y65.873
G1 F1200 X9.375 Y53.923 E52.25179
G0 F4320 X9.174 Y54.217
G1 F1200 X21.031 Y66.073 E52.89348
G0 F4320 X20.536 Y66.073
G1 F1200 X9.174 Y54.712 E53.50839
G0 F4320 X9.174 Y55.207
G1 F1200 X20.041 Y66.073 E54.0965
G0 F4320 X19.546 Y66.073
G1 F1200 X9.174 Y55.702 E54.65783
G0 F4320 X9.174 Y56.197
G1 F1200 X19.051 Y66.073 E55.19236
G0 F4320 X18.556 Y66.073
G1 F1200 X9.174 Y56.692 E55.70011
G0 F4320 X9.174 Y57.187
G1 F1200 X18.061 Y66.073 E56.18106
G0 F4320 X17.566 Y66.073
G1 F1200 X9.174 Y57.682 E56.63522
G0 F4320 X9.174 Y58.177
G1 F1200 X17.071 Y66.073 E57.0626
G0 F4320 X16.576 Y66.073
G1 F1200 X9.174 Y58.671 E57.46321
G0 F4320 X9.174 Y59.166
G1 F1200 X16.081 Y66.073 E57.83703
G0 F4320 X15.586 Y66.073
G1 F1200 X9.174 Y59.661 E58.18406
G0 F4320 X9.174 Y60.156
G1 F1200 X15.091 Y66.073 E58.5043
G0 F4320 X14.596 Y66.073
G1 F1200 X9.174 Y60.651 E58.79774
G0 F4320 X9.174 Y61.146
G1 F1200 X14.101 Y66.073 E59.0644
G0 F4320 X13.606 Y66.073
G1 F1200 X9.174 Y61.641 E59.30427
G0 F4320 X9.174 Y62.136
G1 F1200 X13.111 Y66.073 E59.51735
G0 F4320 X12.616 Y66.073
G1 F1200 X9.174 Y62.631 E59.70364
G0 F4320 X9.174 Y63.126
G1 F1200 X12.121 Y66.073 E59.86313
G0 F4320 X11.626 Y66.073
G1 F1200 X9.174 Y63.621 E59.99584
G0 F4320 X9.174 Y64.116
G1 F1200 X11.131 Y66.073 E60.10176
G0 F4320 X10.636 Y66.073
G1 F1200 X9.174 Y64.611 E60.18088
G0 F4320 X9.174 Y65.106
G1 F1200 X10.141 Y66.073 E60.23322
G0 F4320 X9.646 Y66.073
G1 F1200 X9.174 Y65.601 E60.25876
G1 F2400 E57.75876
G0 F4320 X8.742 Y65.601
G0 X8.194 Y67.059
G0 X8.194 Y68.589
G0 X6.472 Y68.819
;TYPE:WALL-INNER
G1 F2400 E60.25876
G1 F1820.8 X6.407 Y68.782 E60.26159
G1 X6.408 Y68.856 E60.26439
G1 X6.472 Y68.819 E60.26719
G0 F4320 X23.869 Y68.617
G0 X23.829 Y68.574
G1 F1680 X23.551 Y68.746 E60.2806
G1 F1586.9 X7.048 Y68.751 E60.99698
G1 F1693.5 X6.675 Y68.574 E61.01377
G1 F1675.5 X6.505 Y68.299 E61.02706
G1 F1578.9 X6.5 Y51.796 E61.74705
G1 F1689 X6.676 Y51.424 E61.76383
G1 F1675.5 X6.953 Y51.253 E61.77722
G1 F1578.9 X23.456 Y51.248 E62.49721
G1 F1689 X23.828 Y51.424 E62.51399
G1 X24.004 Y51.796 E62.53077
G1 F1582.9 X23.999 Y67.927 E63.23277
G0 F1620 X23.999 Y68.299
G0 X23.829 Y68.574
G0 F4320 X24.118 Y68.819
G1 F1820.8 X24.053 Y68.782 E63.2356
G1 X24.054 Y68.856 E63.2384
G1 X24.118 Y68.819 E63.2412
G0 F4320 X24.117 Y51.178
G1 F1810.3 X24.052 Y51.141 E63.24404
G1 X24.053 Y51.215 E63.24686
G1 X24.117 Y51.178 E63.24967
G0 F4320 X6.473 Y51.178
G1 F1810.3 X6.408 Y51.141 E63.25252
G1 X6.409 Y51.215 E63.25533
G1 X6.473 Y51.178 E63.25815
G0 F4320 X6.636 Y68.617
G0 X23.585 Y69.142
G1 F1680 X24.423 Y69.167 E63.29252
G1 F1675.5 X24.398 Y68.333 E63.32683
G1 F1582.9 X24.4 Y51.796 E64.04649
G1 F1615.4 X24.437 Y50.816 E64.08831
G1 X23.456 Y50.852 E64.13017
G1 F1578.9 X6.919 Y50.855 E64.85164
G1 F1623.7 X6.068 Y50.829 E64.88776
G1 F1640.6 X6.104 Y51.796 E64.92839
G1 F1578.9 X6.107 Y68.333 E65.64987
G1 F1627.9 X6.081 Y69.179 E65.68568
G1 F1644.9 X7.048 Y69.145 E65.7262
G1 F1586.9 X22.89 Y69.142 E66.41389
G0 F1620 X23.585 Y69.142
G0 F4320 X23.654 Y68.239
;TYPE:WALL-OUTER
G1 F1800 X23.598 Y68.345 E66.41848
G1 X23.491 Y68.402 E66.42312
G1 X7.048 Y68.404 E67.05239
G1 X6.906 Y68.345 E67.05827
G1 X6.85 Y68.239 E67.06286
G1 X6.848 Y51.796 E67.69213
G1 X6.906 Y51.654 E67.698
G1 X7.013 Y51.598 E67.70263
G1 X23.456 Y51.596 E68.3319
G1 X23.598 Y51.654 E68.33777
G1 X23.656 Y51.796 E68.34364
G1 X23.654 Y67.544 E68.94631
G0 F1620 X23.654 Y68.239
G0 F4320 X23.598 Y68.345
G0 X23.528 Y68.382
G0 X23.528 Y68.689
G0 X24.493 Y69.24
G0 X24.748 Y69.492
G1 F1800 X24.748 Y50.504 E69.67298
G1 X5.756 Y50.504 E70.39981
G1 X5.756 Y69.492 E71.12648
G1 X24.053 Y69.492 E71.8267
G0 F1620 X24.748 Y69.492
G0 F4320 X24.748 Y69.292
G1 F2400 E69.3267
G0 F4320 X24.463 Y69.292
G0 X24.543 Y66.581
G0 X25.613 Y66.581
G0 X49.64 Y66.581
G0 X52.947 Y66.581
G0 X66.573 Y66.581
G1 F2400 E71.8267
G0 F4320 X66.581 Y66.581
;TYPE:WALL-INNER
G1 F1800 X66.581 Y53.415 E72.33056
G1 X53.415 Y53.415 E72.83443
G1 X53.415 Y66.581 E73.33829
G1 X65.886 Y66.581 E73.81555
G0 F1620 X66.581 Y66.581
G0 F4320 X66.931 Y66.931
G1 F1800 X66.931 Y53.065 E74.3462
G1 X53.065 Y53.065 E74.87685
G1 X53.065 Y66.931 E75.40751
G1 X66.236 Y66.931 E75.91156
G0 F1620 X66.931 Y66.931
G0 F4320 X67.256 Y67.256
;TYPE:WALL-OUTER
G1 F1800 X67.256 Y52.74 E76.46709
G1 X52.74 Y52.74 E77.02261
G1 X52.74 Y67.256 E77.57814
G1 X66.561 Y67.256 E78.10707
G0 F1620 X67.256 Y67.256
G0 F4320 X67.256 Y67.056
G0 X66.603 Y66.603
G0 X66.249 Y66.249
;TYPE:SKIN
G1 F1200 X53.747 Y66.249 E78.58552
G1 X53.747 Y53.747 E79.06397
G1 X66.249 Y53.747 E79.54242
G1 X66.249 Y66.249 E80.02087
G0 F4320 X66.506 Y66.249
G0 X66.434 Y53.562
G0 X65.801 Y53.922
G1 F1200 X66.074 Y54.195 E80.03565
G0 F4320 X66.074 Y54.69
G1 F1200 X65.306 Y53.922 E80.07721
G0 F4320 X64.811 Y53.922
G1 F1200 X66.074 Y55.185 E80.14557
G0 F4320 X66.074 Y55.68
G1 F1200 X64.316 Y53.922 E80.24071
G0 F4320 X63.821 Y53.922
G1 F1200 X66.074 Y56.175 E80.36265
G0 F4320 X66.074 Y56.67
G1 F1200 X63.326 Y53.922 E80.51138
G0 F4320 X62.831 Y53.922
G1 F1200 X66.074 Y57.165 E80.68689
G0 F4320 X66.074 Y57.66
G1 F1200 X62.336 Y53.922 E80.8892
G0 F4320 X61.841 Y53.922
G1 F1200 X66.074 Y58.155 E81.1183
G0 F4320 X66.074 Y58.65
G1 F1200 X61.346 Y53.922 E81.37419
G0 F4320 X60.851 Y53.922
G1 F1200 X66.074 Y59.145 E81.65687
G0 F4320 X66.074 Y59.64
G1 F1200 X60.357 Y53.922 E81.96631
G0 F4320 X59.862 Y53.922
G1 F1200 X66.074 Y60.134 E82.30251
G0 F4320 X66.074 Y60.629
G1 F1200 X59.367 Y53.922 E82.66551
G0 F4320 X58.872 Y53.922
G1 F1200 X66.074 Y61.124 E83.05529
G0 F4320 X66.074 Y61.619
G1 F1200 X58.377 Y53.922 E83.47187
G0 F4320 X57.882 Y53.922
G1 F1200 X66.074 Y62.114 E83.91524
G0 F4320 X66.074 Y62.609
G1 F1200 X57.387 Y53.922 E84.38539
G0 F4320 X56.892 Y53.922
G1 F1200 X66.074 Y63.104 E84.88234
G0 F4320 X66.074 Y63.599
G1 F1200 X56.397 Y53.922 E85.40608
G0 F4320 X55.902 Y53.922
G1 F1200 X66.074 Y64.094 E85.95661
G0 F4320 X66.074 Y64.589
G1 F1200 X55.407 Y53.922 E86.53392
G0 F4320 X54.912 Y53.922
G1 F1200 X66.074 Y65.084 E87.13803
G0 F4320 X66.074 Y65.579
G1 F1200 X54.417 Y53.922 E87.76893
G0 F4320 X53.922 Y53.922
G1 F1200 X66.074 Y66.074 E88.42662
G0 F4320 X65.579 Y66.074
G1 F1200 X53.922 Y54.417 E89.05752
G0 F4320 X53.922 Y54.912
G1 F1200 X65.084 Y66.074 E89.66163
G0 F4320 X64.589 Y66.074
G1 F1200 X53.922 Y55.407 E90.23894
G0 F4320 X53.922 Y55.902
G1 F1200 X64.094 Y66.074 E90.78947
G0 F4320 X63.599 Y66.074
G1 F1200 X53.922 Y56.397 E91.31321
G0 F4320 X53.922 Y56.892
G1 F1200 X63.104 Y66.074 E91.81016
G0 F4320 X62.609 Y66.074
G1 F1200 X53.922 Y57.387 E92.28031
G0 F4320 X53.922 Y57.882
G1 F1200 X62.114 Y66.074 E92.72368
G0 F4320 X61.619 Y66.074
G1 F1200 X53.922 Y58.377 E93.14026
G0 F4320 X53.922 Y58.872
G1 F1200 X61.124 Y66.074 E93.53004
G0 F4320 X60.629 Y66.074
G1 F1200 X53.922 Y59.367 E93.89304
G0 F4320 X53.922 Y59.862
G1 F1200 X60.134 Y66.074 E94.22924
G0 F4320 X59.64 Y66.074
G1 F1200 X53.922 Y60.357 E94.53868
G0 F4320 X53.922 Y60.851
G1 F1200 X59.145 Y66.074 E94.82136
