;FLAVOR:Marlin
;TIME:4245
;Filament used: 2.55926m
;Layer height: 0.175
;MINX:7.002
;MINY:14.73
;MINZ:0.263
;MAXX:97.595
;MAXY:83.652
;MAXZ:5.863
;TARGET_MACHINE.NAME:Monoprice Select Mini V2
;Generated with Cura_SteamEngine 5.9.1
M140 S65
M105
M190 S65
M104 S205
M105
M109 S205
M82 ;absolute extrusion mode
G21;(metric values)
G90;(absolute positioning)
M82;(set extruder to absolute mode)
M107;(start with the fan off)
G28;(Home the printer)
G92 E0;(Reset the extruder to 0)
G0 Z5 E5 F500;(Move up and prime the nozzle)
G0 X-1 Z0;(Move outside the printable area)
G1 Y60 E8 F500;(Draw a priming/wiping line to the rear)
G1 X-1;(Move a little closer to the print area)
G1 Y10 E16 F500;(draw more priming/wiping)
G1 E15 F250;(Small retract)
G92 E0;(Zero the extruder)
G92 E0
G92 E0
G1 F2400 E-2.5
;LAYER_COUNT:33
;LAYER:0
M107
G0 F4320 X7.591 Y29.701 Z0.263
;TYPE:SKIRT
G1 F2400 E0
G1 F1800 X8.18 Y28.409 E0.05434
G1 X8.838 Y27.363 E0.10163
G1 X9.728 Y26.307 E0.15448
G1 X10.349 Y25.725 E0.18706
G1 X11.299 Y25.007 E0.23263
G1 X12.663 Y24.245 E0.29242
G1 X13.538 Y23.906 E0.32833
G1 X15.344 Y23.473 E0.39941
G1 X16.026 Y23.41 E0.42562
G1 X17.452 Y23.435 E0.4802
G1 X18.497 Y23.582 E0.52059
G1 X19.496 Y23.838 E0.56005
G1 X20.508 Y24.222 E0.60148
G1 X21.996 Y25.027 E0.66622
G1 X22.729 Y25.574 E0.70122
G1 X22.91 Y24.61 E0.73876
G1 X23.299 Y23.511 E0.78338
G1 X24.3 Y21.955 E0.85418
G1 X25.13 Y20.995 E0.90275
G1 X26.672 Y19.926 E0.97455
G1 X27.583 Y19.456 E1.01378
G1 X27.595 Y19.259 E1.02134
G1 X27.767 Y18.27 E1.05975
G1 X28.356 Y17.043 E1.11184
G1 X29.401 Y15.802 E1.17393
G1 X31.072 Y14.956 E1.24561
G1 X32.136 Y14.77 E1.28694
G1 X87.525 Y14.73 E3.40668
G1 X89.028 Y14.935 E3.46473
G1 X90.276 Y15.532 E3.51768
G1 X91.363 Y16.439 E3.57185
G1 X91.627 Y16.772 E3.58812
G1 X92.387 Y18.272 E3.65247
G1 X92.578 Y19.475 E3.69909
G1 X93.793 Y20.112 E3.75159
G1 X94.795 Y20.799 E3.79808
G1 X96.111 Y22.22 E3.8722
G1 X96.991 Y23.886 E3.94431
G1 X97.196 Y24.445 E3.96709
G1 X97.595 Y26.83 E4.05963
G1 X97.566 Y28.855 E4.13714
G1 X97.341 Y30.208 E4.18963
G1 X96.813 Y31.687 E4.24973
G1 X96.092 Y32.944 E4.30519
G1 X95.711 Y33.431 E4.32885
G1 X94.614 Y34.501 E4.3875
G1 X93.401 Y35.329 E4.4437
G1 X92.567 Y35.753 E4.47951
G1 X92.555 Y35.951 E4.4871
G1 X92.383 Y36.938 E4.52544
G1 X91.989 Y37.758 E4.56026
G1 X92.259 Y38.288 E4.58302
G1 X92.452 Y39.498 E4.62991
G1 X93.689 Y40.147 E4.68337
G1 X94.562 Y40.783 E4.72471
G1 X95.488 Y41.634 E4.77284
G1 X96.561 Y43.18 E4.84486
G1 X97.226 Y44.859 E4.91397
G1 X97.446 Y46.428 E4.9746
G1 X97.43 Y48.954 E5.07127
G1 X97.146 Y50.514 E5.13195
G1 X96.822 Y51.419 E5.16874
G1 X95.708 Y53.307 E5.25263
G1 X94.898 Y54.243 E5.30001
G1 X93.271 Y55.357 E5.37547
G1 X92.442 Y55.78 E5.41108
G1 X92.43 Y55.977 E5.41864
G1 X92.258 Y56.964 E5.45698
G1 X91.688 Y58.151 E5.50737
G1 X91.39 Y58.523 E5.52561
G1 X91.508 Y58.665 E5.53268
G1 X92.283 Y60.205 E5.59866
G1 X92.478 Y61.421 E5.64579
G1 X93.682 Y62.054 E5.69784
G1 X94.669 Y62.777 E5.74467
G1 X95.671 Y63.746 E5.79801
G1 X96.597 Y65.227 E5.86486
G1 X97.236 Y66.687 E5.92585
G1 X97.486 Y68.609 E6.00002
G1 X97.455 Y70.875 E6.08675
G1 X97.171 Y72.433 E6.14736
G1 X96.847 Y73.338 E6.18414
G1 X95.733 Y75.226 E6.26804
G1 X94.929 Y76.154 E6.31503
G1 X93.271 Y77.292 E6.39199
G1 X92.467 Y77.702 E6.42653
G1 X92.455 Y77.896 E6.43396
G1 X92.283 Y78.885 E6.47238
G1 X91.693 Y80.114 E6.52455
G1 X90.648 Y81.354 E6.58661
G1 X88.973 Y82.205 E6.65851
G1 X87.67 Y82.405 E6.70896
G1 X31.923 Y82.37 E8.8424
G1 X30.926 Y82.184 E8.88121
G1 X29.607 Y81.544 E8.93732
G1 X28.425 Y80.401 E9.00024
G1 X27.787 Y79.134 E9.05453
G1 X27.128 Y80.058 E9.09797
G1 X26.488 Y80.778 E9.13483
G1 X25.397 Y81.73 E9.19025
G1 X24.302 Y82.437 E9.24013
G1 X23.452 Y82.852 E9.27633
G1 X22.106 Y83.321 E9.33088
G1 X21.18 Y83.517 E9.3671
G1 X19.65 Y83.652 E9.42588
G1 X18.915 Y83.621 E9.45403
G1 X17.574 Y83.416 E9.50595
G1 X15.957 Y82.911 E9.57078
G1 X14.495 Y82.169 E9.63352
G1 X13.796 Y81.684 E9.66608
G1 X12.411 Y80.383 E9.7388
G1 X11.993 Y79.873 E9.76404
G1 X11.167 Y78.608 E9.82186
G1 X10.913 Y78.104 E9.84346
G1 X10.391 Y76.682 E9.90143
G1 X10.149 Y75.665 E9.94143
G1 X10.067 Y75.084 E9.96389
G1 X10.047 Y73.291 E10.03251
G1 X10.25 Y71.872 E10.08737
G1 X10.397 Y71.31 E10.1096
G1 X10.903 Y69.988 E10.16377
G1 X11.427 Y68.996 E10.20671
G1 X11.748 Y68.506 E10.22913
G1 X12.613 Y67.453 E10.28128
G1 X11.942 Y66.874 E10.3152
G1 X11.158 Y66.001 E10.3601
G1 X10.34 Y64.81 E10.41539
G1 X9.755 Y63.626 E10.46593
G1 X9.57 Y63.134 E10.48605
G1 X9.179 Y61.588 E10.54708
G1 X9.092 Y60.89 E10.574
G1 X9.071 Y59.427 E10.62999
G1 X9.215 Y58.224 E10.67636
G1 X9.512 Y57.06 E10.72233
G1 X9.997 Y55.846 E10.77236
G1 X10.567 Y54.819 E10.81731
G1 X11.208 Y53.923 E10.85948
G1 X11.887 Y53.192 E10.89766
G1 X11.279 Y52.596 E10.93024
G1 X10.703 Y51.868 E10.96577
G1 X9.864 Y50.477 E11.02793
G1 X9.301 Y49.079 E11.08561
G1 X9.006 Y47.869 E11.13327
G1 X8.924 Y47.288 E11.15573
G1 X8.904 Y45.493 E11.22443
G1 X9.107 Y44.074 E11.27929
G1 X9.254 Y43.512 E11.30152
G1 X9.76 Y42.19 E11.35569
G1 X10.284 Y41.198 E11.39862
G1 X10.689 Y40.579 E11.42693
G1 X10.489 Y40.433 E11.43641
G1 X9.412 Y39.383 E11.49397
G1 X8.593 Y38.321 E11.5453
G1 X7.936 Y37.169 E11.59605
G1 X7.686 Y36.599 E11.61987
G1 X7.269 Y35.272 E11.6731
G1 X7.104 Y34.427 E11.70605
G1 X7.002 Y33.049 E11.75893
G1 X7.035 Y32.229 E11.79034
G1 X7.309 Y30.589 E11.85397
G1 X7.591 Y29.701 E11.88963
G0 F4320 X7.925 Y29.807
G1 F1800 X8.498 Y28.555 E11.94232
G1 X9.106 Y27.589 E11.986
G1 X9.996 Y26.533 E12.03885
G1 X10.561 Y26.004 E12.06848
G1 X11.47 Y25.313 E12.11217
G1 X12.834 Y24.551 E12.17197
G1 X13.663 Y24.233 E12.20595
G1 X15.376 Y23.822 E12.27336
G1 X16.058 Y23.759 E12.29957
G1 X17.403 Y23.782 E12.35106
G1 X18.448 Y23.929 E12.39144
G1 X19.408 Y24.177 E12.42939
G1 X20.383 Y24.549 E12.46932
G1 X21.787 Y25.308 E12.5304
G1 X22.5 Y25.838 E12.5644
G1 X22.953 Y26.287 E12.58881
G1 X23.24 Y24.727 E12.64951
G1 X23.615 Y23.667 E12.69254
G1 X24.565 Y22.184 E12.75994
G1 X25.366 Y21.257 E12.80683
G1 X26.871 Y20.214 E12.87691
G1 X27.923 Y19.675 E12.92214
G1 X27.94 Y19.319 E12.93578
G1 X28.104 Y18.376 E12.97241
G1 X28.652 Y17.235 E13.02085
G1 X29.623 Y16.082 E13.07854
G1 X31.182 Y15.292 E13.14543
G1 X32.196 Y15.115 E13.18482
G1 X87.525 Y15.08 E15.30226
G1 X88.927 Y15.275 E15.35643
G1 X90.086 Y15.829 E15.40559
G1 X91.139 Y16.708 E15.45808
G1 X91.315 Y16.93 E15.46893
G1 X92.049 Y18.379 E15.53109
G1 X92.259 Y19.703 E15.58239
G1 X93.595 Y20.401 E15.64008
G1 X94.565 Y21.066 E15.68508
G1 X95.824 Y22.426 E15.75601
G1 X96.662 Y24.007 E15.82449
G1 X96.867 Y24.566 E15.84727
G1 X97.245 Y26.825 E15.93493
G1 X97.216 Y28.85 E16.01243
G1 X97.011 Y30.09 E16.06053
G1 X96.483 Y31.569 E16.12063
G1 X95.816 Y32.728 E16.17181
G1 X95.435 Y33.215 E16.19547
G1 X94.416 Y34.212 E16.25003
G1 X93.242 Y35.017 E16.30451
G1 X92.227 Y35.533 E16.34808
G1 X92.21 Y35.891 E16.3618
G1 X92.046 Y36.832 E16.39835
G1 X91.599 Y37.762 E16.43784
G1 X91.921 Y38.396 E16.46505
G1 X92.134 Y39.727 E16.51664
G1 X93.483 Y40.43 E16.57485
G1 X94.325 Y41.041 E16.61467
G1 X95.223 Y41.866 E16.66134
G1 X96.251 Y43.348 E16.73036
G1 X96.884 Y44.946 E16.79614
G1 X97.099 Y46.477 E16.85531
G1 X97.08 Y48.951 E16.94999
G1 X96.816 Y50.396 E17.0062
G1 X96.492 Y51.301 E17.04299
G1 X95.443 Y53.078 E17.12196
G1 X94.663 Y53.979 E17.16757
G1 X93.073 Y55.068 E17.24132
G1 X92.102 Y55.561 E17.283
G1 X92.085 Y55.917 E17.29664
G1 X91.921 Y56.858 E17.33319
G1 X91.373 Y57.999 E17.38163
G1 X90.912 Y58.547 E17.40904
G1 X91.195 Y58.822 E17.42414
G1 X91.945 Y60.313 E17.48801
G1 X92.16 Y61.649 E17.5398
G1 X93.519 Y62.364 E17.59857
G1 X94.426 Y63.029 E17.64161
G1 X95.398 Y63.969 E17.69336
G1 X96.276 Y65.367 E17.75653
G1 X96.895 Y66.782 E17.81564
G1 X97.136 Y68.604 E17.88598
G1 X97.105 Y70.87 E17.9727
G1 X96.841 Y72.315 E18.02892
G1 X96.517 Y73.22 E18.06571
G1 X95.468 Y74.997 E18.14468
G1 X94.692 Y75.893 E18.19004
G1 X93.112 Y76.98 E18.26343
G1 X92.127 Y77.482 E18.30574
G1 X92.11 Y77.836 E18.31931
G1 X91.946 Y78.779 E18.35594
G1 X91.398 Y79.92 E18.40438
G1 X90.425 Y81.074 E18.46214
G1 X88.864 Y81.867 E18.52915
G1 X87.67 Y82.055 E18.57541
G1 X31.987 Y82.026 E20.70639
G1 X31.038 Y81.849 E20.74334
G1 X29.81 Y81.253 E20.79557
G1 X28.711 Y80.191 E20.85406
G1 X28.009 Y78.795 E20.91386
G1 X27.907 Y78.159 E20.93851
G1 X27.457 Y78.994 E20.97481
G1 X26.866 Y79.825 E21.01384
G1 X26.226 Y80.545 E21.0507
G1 X25.167 Y81.466 E21.10441
G1 X24.148 Y82.122 E21.15079
G1 X23.298 Y82.537 E21.18699
G1 X22.033 Y82.979 E21.23827
G1 X21.149 Y83.168 E21.27287
G1 X19.665 Y83.302 E21.32989
G1 X18.93 Y83.271 E21.35805
G1 X17.627 Y83.07 E21.4085
G1 X16.115 Y82.599 E21.46911
G1 X14.695 Y81.881 E21.53
G1 X13.996 Y81.396 E21.56256
G1 X12.682 Y80.161 E21.63158
G1 X12.264 Y79.651 E21.65681
G1 X11.48 Y78.45 E21.7117
G1 X11.226 Y77.946 E21.7333
G1 X10.731 Y76.601 E21.78815
G1 X10.496 Y75.616 E21.8269
G1 X10.414 Y75.035 E21.84936
G1 X10.394 Y73.34 E21.91423
G1 X10.589 Y71.961 E21.96753
G1 X10.736 Y71.399 E21.98976
G1 X11.213 Y70.151 E22.04089
G1 X11.72 Y69.188 E22.08254
G1 X12.041 Y68.698 E22.10496
G1 X12.903 Y67.65 E22.15689
G1 X13.129 Y67.436 E22.1688
G1 X12.171 Y66.609 E22.21723
G1 X11.419 Y65.768 E22.26041
G1 X10.654 Y64.655 E22.31209
G1 X10.083 Y63.503 E22.3613
G1 X9.898 Y63.011 E22.38141
G1 X9.526 Y61.544 E22.43933
G1 X9.442 Y60.884 E22.4648
G1 X9.419 Y59.469 E22.51895
G1 X9.563 Y58.266 E22.56532
G1 X9.837 Y57.189 E22.60785
G1 X10.303 Y56.015 E22.65619
G1 X10.852 Y55.023 E22.69958
G1 X11.493 Y54.127 E22.74174
G1 X12.376 Y53.182 E22.79124
G1 X11.524 Y52.346 E22.83692
G1 X11.002 Y51.687 E22.86909
G1 X10.189 Y50.346 E22.92911
G1 X9.626 Y48.948 E22.98678
G1 X9.353 Y47.82 E23.0312
G1 X9.271 Y47.239 E23.05365
G1 X9.251 Y45.542 E23.1186
G1 X9.446 Y44.163 E23.1719
G1 X9.593 Y43.601 E23.19413
G1 X10.07 Y42.353 E23.24526
G1 X10.577 Y41.39 E23.28691
G1 X10.898 Y40.9 E23.30933
G1 X11.206 Y40.523 E23.32796
G1 X10.696 Y40.15 E23.35214
G1 X9.689 Y39.168 E23.40597
G1 X8.897 Y38.147 E23.45542
G1 X8.257 Y37.028 E23.50476
G1 X8.007 Y36.458 E23.52857
G1 X7.613 Y35.205 E23.57884
G1 X7.448 Y34.36 E23.61179
G1 X7.352 Y33.063 E23.66156
G1 X7.385 Y32.243 E23.69297
G1 X7.643 Y30.695 E23.75303
G1 X7.925 Y29.807 E23.78868
G1 F2400 E21.28868
G0 F4320 X8.816 Y28.701
G1 F2400 E23.78868
G1 F1800 X9.374 Y27.814 E23.82879
G1 X10.236 Y26.788 E23.88007
G1 X10.773 Y26.283 E23.90828
G1 X11.682 Y25.592 E23.95198
G1 X12.959 Y24.878 E24.00797
G1 X13.788 Y24.56 E24.04195
G1 X15.408 Y24.171 E24.10571
G1 X16.09 Y24.108 E24.13192
G1 X17.354 Y24.129 E24.1803
G1 X18.399 Y24.276 E24.22069
G1 X19.283 Y24.504 E24.25563
G1 X20.258 Y24.876 E24.29556
G1 X21.579 Y25.59 E24.35303
G1 X22.254 Y26.087 E24.38511
G1 X23.276 Y27.1 E24.44018
G1 X23.282 Y26.43 E24.46582
G1 X23.57 Y24.844 E24.52751
G1 X23.932 Y23.821 E24.56904
G1 X24.83 Y22.413 E24.63295
G1 X25.603 Y21.518 E24.67821
G1 X27.031 Y20.526 E24.74475
G1 X28.265 Y19.894 E24.79781
G1 X28.285 Y19.379 E24.81753
G1 X28.441 Y18.484 E24.8523
G1 X28.949 Y17.426 E24.89721
G1 X29.845 Y16.362 E24.95045
G1 X31.292 Y15.628 E25.01254
G1 X32.256 Y15.46 E25.04999
G1 X87.525 Y15.43 E27.16513
G1 X88.826 Y15.615 E27.21542
G1 X89.896 Y16.126 E27.2608
G1 X90.915 Y16.977 E27.31161
G1 X91.003 Y17.088 E27.31703
G1 X91.711 Y18.486 E27.377
G1 X91.884 Y19.577 E27.41927
G1 X91.894 Y19.907 E27.43191
G1 X93.397 Y20.69 E27.49677
G1 X94.335 Y21.333 E27.54029
G1 X95.537 Y22.632 E27.60802
G1 X96.333 Y24.128 E27.67287
G1 X96.538 Y24.687 E27.69566
G1 X96.895 Y26.82 E27.77842
G1 X96.866 Y28.845 E27.85593
G1 X96.681 Y29.973 E27.89967
G1 X96.179 Y31.395 E27.95738
G1 X95.54 Y32.512 E28.00663
G1 X95.159 Y32.999 E28.03029
G1 X94.172 Y33.961 E28.08304
G1 X93.083 Y34.705 E28.13351
G1 X91.885 Y35.314 E28.18494
G1 X91.865 Y35.831 E28.20474
G1 X91.709 Y36.726 E28.23951
G1 X91.209 Y37.767 E28.28371
G1 X91.584 Y38.505 E28.31539
G1 X91.759 Y39.602 E28.3579
G1 X91.769 Y39.932 E28.37054
G1 X93.278 Y40.714 E28.43558
G1 X94.088 Y41.299 E28.47382
G1 X94.956 Y42.097 E28.51894
G1 X95.942 Y43.518 E28.58513
G1 X96.542 Y45.033 E28.64749
G1 X96.752 Y46.526 E28.70519
G1 X96.735 Y48.889 E28.79563
G1 X96.486 Y50.278 E28.84963
G1 X96.162 Y51.183 E28.88642
G1 X95.178 Y52.849 E28.96047
G1 X94.428 Y53.715 E29.00431
G1 X92.875 Y54.779 E29.07635
G1 X91.76 Y55.342 E29.12415
G1 X91.74 Y55.857 E29.14388
G1 X91.584 Y56.752 E29.17865
G1 X91.077 Y57.807 E29.22344
G1 X90.419 Y58.59 E29.26258
G1 X90.882 Y58.979 E29.28573
G1 X91.607 Y60.421 E29.34749
G1 X91.784 Y61.521 E29.39013
G1 X91.794 Y61.853 E29.40284
G1 X93.313 Y62.647 E29.46844
G1 X94.183 Y63.281 E29.50964
G1 X95.124 Y64.191 E29.55973
G1 X95.955 Y65.507 E29.6193
G1 X96.554 Y66.877 E29.67652
G1 X96.786 Y68.6 E29.74305
G1 X96.76 Y70.808 E29.82756
G1 X96.511 Y72.197 E29.88156
G1 X96.187 Y73.102 E29.91835
G1 X95.203 Y74.768 E29.9924
G1 X94.456 Y75.63 E30.03605
G1 X92.953 Y76.668 E30.10595
G1 X91.785 Y77.263 E30.15612
G1 X91.765 Y77.776 E30.17577
G1 X91.609 Y78.671 E30.21053
G1 X91.101 Y79.729 E30.25545
G1 X90.203 Y80.795 E30.30879
G1 X88.757 Y81.529 E30.37085
G1 X87.67 Y81.705 E30.41299
G1 X32.051 Y81.682 E32.54153
G1 X31.15 Y81.514 E32.5766
G1 X30.013 Y80.962 E32.62497
G1 X28.997 Y79.981 E32.67902
G1 X28.347 Y78.687 E32.73444
G1 X28.164 Y77.55 E32.77851
G1 X28.157 Y77.25 E32.79
G1 X27.971 Y77.154 E32.79801
G1 X27.808 Y77.601 E32.81622
G1 X27.171 Y78.792 E32.86791
G1 X26.604 Y79.592 E32.90543
G1 X25.964 Y80.312 E32.9423
G1 X24.977 Y81.172 E32.9924
G1 X23.993 Y81.808 E33.03724
G1 X23.182 Y82.207 E33.07183
G1 X21.959 Y82.637 E33.12144
G1 X21.118 Y82.819 E33.15437
G1 X19.634 Y82.953 E33.21139
G1 X18.946 Y82.921 E33.23775
G1 X17.681 Y82.724 E33.28675
G1 X16.272 Y82.286 E33.34321
G1 X14.895 Y81.593 E33.40221
G1 X14.196 Y81.108 E33.43477
G1 X12.953 Y79.939 E33.50007
G1 X12.535 Y79.429 E33.5253
G1 X11.793 Y78.292 E33.57726
G1 X11.539 Y77.788 E33.59886
G1 X11.071 Y76.52 E33.65059
G1 X10.843 Y75.567 E33.68809
G1 X10.761 Y74.986 E33.71054
G1 X10.744 Y73.336 E33.77369
G1 X10.928 Y72.05 E33.82341
G1 X11.075 Y71.488 E33.84564
G1 X11.523 Y70.314 E33.89373
G1 X12.013 Y69.38 E33.93409
G1 X12.334 Y68.89 E33.95651
G1 X13.173 Y67.873 E34.00697
G1 X13.687 Y67.396 E34.0338
G1 X13.364 Y67.177 E34.04874
G1 X12.431 Y66.375 E34.09582
G1 X11.707 Y65.569 E34.13729
G1 X10.967 Y64.499 E34.18707
G1 X10.411 Y63.38 E34.23489
G1 X10.226 Y62.888 E34.25501
G1 X9.873 Y61.499 E34.30985
G1 X9.792 Y60.878 E34.33382
G1 X9.767 Y59.511 E34.38615
G1 X9.911 Y58.308 E34.43251
G1 X10.163 Y57.317 E34.47165
G1 X10.61 Y56.184 E34.51826
G1 X11.137 Y55.227 E34.56007
G1 X11.778 Y54.331 E34.60223
G1 X12.516 Y53.544 E34.64352
G1 X12.933 Y53.191 E34.66443
G1 X12.726 Y53.035 E34.67435
G1 X11.798 Y52.128 E34.72401
G1 X11.301 Y51.505 E34.75451
G1 X10.513 Y50.214 E34.81239
G1 X9.966 Y48.865 E34.8681
G1 X9.7 Y47.771 E34.91119
G1 X9.618 Y47.19 E34.93364
G1 X9.601 Y45.538 E34.99687
G1 X9.785 Y44.252 E35.04658
G1 X9.932 Y43.69 E35.06881
G1 X10.38 Y42.516 E35.1169
G1 X10.87 Y41.582 E35.15727
G1 X11.191 Y41.092 E35.17968
G1 X11.714 Y40.458 E35.21114
G1 X10.94 Y39.899 E35.24768
G1 X9.966 Y38.953 E35.29964
G1 X9.174 Y37.932 E35.34909
G1 X8.578 Y36.887 E35.39513
G1 X8.328 Y36.317 E35.41895
G1 X7.957 Y35.138 E35.46625
G1 X7.792 Y34.293 E35.4992
G1 X7.702 Y33.077 E35.54586
G1 X7.735 Y32.257 E35.57727
G1 X7.977 Y30.801 E35.63376
G1 X8.259 Y29.913 E35.66941
G1 X8.816 Y28.701 E35.72046
G1 F2400 E33.22046
G0 F4320 X9.642 Y28.039
G1 F2400 E35.72046
G1 F1800 X10.504 Y27.013 E35.77174
G1 X10.985 Y26.562 E35.79698
G1 X11.894 Y25.871 E35.84067
G1 X13.084 Y25.205 E35.89286
G1 X13.913 Y24.887 E35.92684
G1 X15.44 Y24.52 E35.98694
G1 X16.122 Y24.457 E36.01315
G1 X17.305 Y24.476 E36.05843
G1 X18.35 Y24.623 E36.09882
G1 X19.158 Y24.831 E36.13075
G1 X20.133 Y25.203 E36.17069
G1 X21.371 Y25.872 E36.22454
G1 X22.046 Y26.369 E36.25662
G1 X23.181 Y27.499 E36.31791
G1 X23.618 Y28.075 E36.34558
G1 X23.632 Y26.433 E36.40842
G1 X23.9 Y24.961 E36.46568
G1 X24.249 Y23.976 E36.50568
G1 X25.095 Y22.642 E36.56613
G1 X25.84 Y21.779 E36.60976
G1 X27.191 Y20.838 E36.67277
G1 X28.609 Y20.112 E36.73373
G1 X28.63 Y19.439 E36.7595
G1 X28.778 Y18.592 E36.79241
